X: 129
T:When She Cam Ben She Bobbit
G:song from Midlothian
M:6/8
L:1/8
Q:3/8=84
K:EMin
B,|E>EE G2G|FD2 z2D|E>EE e2e|dB2 z2
z |d>ed d2B|A2G FGA|B2 B BAB|GE2 z2|]

In Allan's "110 Songs of Scotland" from the late nineteenth century and
intended to fit Lady Nairne's adapted words, it had gone into the minor,
though the sixth is still not an important note:

